rospo-icon-theme-classic-common/22x22/places/folder-red-tar.svg

<svg height="22" width="22" xmlns="http://www.w3.org/2000/svg"><rect height="12" opacity=".2" rx="1" width="20" x="1" y="8.5"/><path d="m1 16c0 .554.446 1 1 1h18c .554 0 1-.446 1-1v-11c0-.554-.446-1-1-1h-10v-1c0-.554-.446-1-1-1h-7c-.554 0-1 .446-1 1" fill="#bf4b4b"/><rect height="12" opacity=".2" rx="1" width="20" x="1" y="7.5"/><rect fill="#e4e4e4" height="8" rx="1" width="16" x="3" y="6"/><rect fill="#e25252" height="12" rx="1" width="20" x="1" y="8"/><path d="m2 2c-.554 0-1 .446-1 1v .5c0-.554.446-1 1-1h7c .554 0 1 .446 1 1v-.5c0-.554-.446-1-1-1zm8 2v .5h10c .554 0 1 .446 1 1v-.5c0-.554-.446-1-1-1z" fill="#fff" opacity=".1"/><g transform="translate(-1 -1)"><path d="m12 9v1h1v-1zm0 1h-1v1h1zm0 1v1c .552 0 1-.5 1-1z" fill="#4f1d1d"/><path d="m12 12c-1.105 0-2 .9-2 2v4c0 1.1.895 2 2 2s2-.9 2-2v-4c0-1.1-.895-2-2-2zm0 1c .552 0 1 .4 1 1 0 .5-.448 1-1 1s-1-.5-1-1c0-.6.448-1 1-1zm0 3c .552 0 1 .4 1 1v1c0 .5-.448 1-1 1s-1-.5-1-1v-1c0-.6.448-1 1-1z" fill="#4f1d1d"/></g></svg>

<svg xmlns="http://www.w3.org/2000/svg" width="22" height="22" version="1">
 <rect style="opacity:0.2" width="20" height="12" x="1" y="8.5" rx="1" ry="1"/>
 <path style="fill:#bf4b4b" d="M 1,16 C 1,16.554 1.446,17 2,17 H 20 C 20.554,17 21,16.554 21,16 V 5 C 21,4.446 20.554,4 20,4 H 10 V 3 C 10,2.446 9.554,2 9,2 H 2 C 1.446,2 1,2.446 1,3"/>
 <rect style="opacity:0.2" width="20" height="12" x="1" y="7.5" rx="1" ry="1"/>
 <rect style="fill:#dcdcdc" width="16" height="8" x="3" y="6" rx="1" ry="1"/>
 <rect style="fill:#e25252" width="20" height="12" x="1" y="8" rx="1" ry="1"/>
 <path style="opacity:0.1;fill:#ffffff" d="M 2,2 C 1.446,2 1,2.446 1,3 V 3.5 C 1,2.946 1.446,2.5 2,2.5 H 9 C 9.554,2.5 10,2.946 10,3.5 V 3 C 10,2.446 9.554,2 9,2 Z M 10,4 V 4.5 H 20 C 20.554,4.5 21,4.946 21,5.5 V 5 C 21,4.446 20.554,4 20,4 Z"/>
 <g transform="translate(-1,-1)">
  <path style="fill:#4f1d1d" d="M 12,9 V 10 H 13 V 9 Z M 12,10 H 11 V 11 H 12 Z M 12,11 V 12 C 12.552,12 13,11.5 13,11 Z"/>
  <path style="fill:#4f1d1d" d="M 12,12 C 10.895,12 10,12.9 10,14 V 18 C 10,19.1 10.895,20 12,20 13.105,20 14,19.1 14,18 V 14 C 14,12.9 13.105,12 12,12 Z M 12,13 C 12.552,13 13,13.4 13,14 13,14.5 12.552,15 12,15 11.448,15 11,14.5 11,14 11,13.4 11.448,13 12,13 Z M 12,16 C 12.552,16 13,16.4 13,17 V 18 C 13,18.5 12.552,19 12,19 11.448,19 11,18.5 11,18 V 17 C 11,16.4 11.448,16 12,16 Z"/>
 </g>
</svg>
